P2
64 64
255
131 142 148 148 148 147 145 144 143 144 143 139 134 136 144 156 164 169 170 170 168 162 153 142 129 118 110 105 108 121 135 145 149 149 149 147 145 144 145 147 149 150 151 151 155 158 160 159 157 155 156 159 159 156 150 144 136 128 124 128 136 145 155 165
127 135 135 130 133 138 144 145 143 142 142 144 146 149 155 160 165 166 167 168 168 166 161 151 141 133 130 130 131 136 143 149 152 153 153 154 153 152 151 150 148 147 145 146 147 152 154 156 156 157 161 164 166 165 162 156 150 142 138 139 145 151 159 164
139 140 131 120 122 137 149 154 151 147 150 154 160 160 158 156 153 153 153 156 161 165 165 160 154 153 153 156 155 153 151 151 151 151 153 154 156 156 154 150 148 146 145 145 146 149 151 150 149 150 151 154 157 158 157 157 154 152 150 153 158 162 165 168
152 147 132 116 119 137 156 164 164 162 161 166 166 162 150 138 131 127 127 132 144 155 161 162 162 161 162 161 159 153 147 144 145 146 149 152 155 155 152 149 145 144 142 143 147 148 149 147 142 141 139 139 139 139 141 143 147 151 157 163 170 174 175 175
150 144 124 105 109 133 156 167 169 169 169 168 168 158 145 130 120 113 111 118 133 149 159 164 166 163 157 150 144 138 134 133 136 141 146 152 155 156 151 145 140 134 129 130 136 146 150 151 151 149 148 146 143 140 136 138 143 150 158 167 176 180 182 180
139 131 113 97 103 126 148 161 165 167 166 166 163 158 147 138 130 125 123 129 146 161 170 172 172 164 152 139 132 130 129 130 133 138 142 148 152 151 147 140 132 124 118 119 130 143 154 160 164 167 167 166 162 155 149 145 147 151 158 166 174 180 180 180
125 119 106 96 102 120 138 149 154 157 159 159 159 154 146 139 136 136 137 146 160 173 178 177 170 161 147 134 129 131 134 135 136 137 139 143 145 145 139 133 128 123 120 124 134 147 157 165 171 175 178 177 174 169 161 157 155 157 160 167 175 180 181 181
125 121 114 108 113 123 133 139 143 147 150 154 153 146 135 126 127 132 141 149 162 172 173 166 158 148 139 130 129 135 141 143 143 143 144 146 149 148 143 138 134 130 129 133 143 153 161 167 173 178 178 179 177 174 171 167 166 165 169 174 182 185 186 184
152 150 145 139 138 140 142 143 144 146 147 149 147 139 125 116 119 130 141 152 160 165 163 155 145 139 133 132 134 141 148 151 154 154 157 160 162 162 160 156 149 143 138 140 147 156 164 171 177 179 180 179 178 175 173 173 174 176 178 182 187 188 185 181
167 167 165 162 160 159 158 156 154 152 150 147 143 136 126 120 124 138 149 157 162 165 162 155 148 144 142 140 144 150 154 158 159 162 163 166 168 167 165 160 154 146 140 141 149 157 166 172 178 180 180 177 175 172 170 172 176 180 184 185 184 181 174 167
152 157 162 166 168 168 168 166 165 162 157 152 148 143 139 137 143 153 162 166 169 169 168 164 160 156 152 151 151 154 157 157 157 157 158 159 159 155 147 141 138 135 135 139 147 156 163 169 173 174 171 168 166 164 163 164 170 175 177 177 174 168 159 153
135 142 152 160 165 169 171 172 171 169 165 161 156 156 156 158 163 171 177 180 180 180 178 174 170 164 158 152 149 148 146 145 144 143 145 148 148 141 130 121 120 126 133 139 144 149 155 161 165 164 161 157 155 155 153 156 157 161 162 162 160 156 151 146
137 142 148 154 159 163 167 169 170 169 166 161 159 159 162 164 170 176 182 183 185 185 182 179 174 167 158 151 145 139 134 131 128 128 133 140 144 139 126 117 118 129 139 142 141 139 144 151 157 159 153 149 147 145 146 146 148 149 152 154 155 155 153 150
145 146 148 150 151 154 158 160 163 163 160 156 153 152 153 156 160 167 171 174 176 175 174 170 166 163 159 155 149 143 137 133 128 128 132 140 145 141 130 121 125 136 145 147 141 139 141 149 156 156 152 145 142 140 138 140 143 147 152 157 161 163 161 160
147 148 150 149 148 146 146 149 153 153 152 149 146 146 146 147 153 158 163 163 162 160 158 153 153 155 161 163 161 157 152 147 142 139 141 147 150 146 137 131 132 141 150 154 154 155 158 162 165 164 156 149 143 138 135 136 142 148 154 160 164 164 161 156
150 152 154 154 150 145 143 144 146 148 146 144 143 145 146 150 154 160 162 159 153 147 141 137 136 146 161 170 172 169 164 159 152 148 149 153 156 156 152 150 149 152 156 162 169 173 178 181 180 176 168 160 152 144 137 137 140 145 151 157 159 156 147 140
158 160 162 163 159 156 153 153 153 151 149 145 145 149 154 158 163 167 166 160 150 141 134 129 132 143 162 173 178 178 175 167 158 152 152 156 161 167 173 176 174 171 169 171 176 181 187 191 194 191 186 179 169 156 146 139 136 136 141 148 153 151 143 136
165 166 169 170 170 168 166 164 162 160 156 153 153 157 163 168 170 171 170 162 152 145 142 141 144 153 163 173 180 184 184 175 162 153 151 152 158 170 184 192 193 186 182 176 173 173 181 193 200 203 201 197 187 173 158 146 136 130 133 143 153 158 161 161
167 171 174 176 175 173 171 168 166 165 166 166 167 169 171 172 171 169 164 157 151 146 145 150 152 158 164 172 178 188 189 183 170 159 153 150 153 166 183 195 196 193 185 174 160 154 163 181 196 203 206 205 199 187 175 164 155 147 150 159 168 178 182 187
174 177 181 181 178 174 171 168 168 170 174 177 179 178 175 171 165 157 151 146 140 136 136 137 143 150 158 167 177 186 192 189 183 177 173 170 170 177 188 195 195 191 181 171 153 143 153 173 188 199 204 209 204 198 191 187 184 183 185 189 195 197 202 203
185 187 189 187 181 175 172 172 173 176 178 182 181 179 173 167 158 148 142 139 137 134 129 127 130 140 153 164 174 182 189 194 196 198 200 200 200 200 200 200 193 184 178 171 167 168 170 180 191 198 206 210 210 205 203 202 204 206 208 211 213 213 211 210
189 190 189 188 184 179 178 178 180 180 182 180 179 175 169 163 154 147 143 144 147 146 141 135 135 142 152 162 170 177 185 193 202 209 214 218 218 213 209 202 194 185 182 182 188 190 195 196 200 204 209 214 214 211 209 210 212 213 217 219 219 218 213 211
182 181 183 183 186 189 188 187 186 185 183 183 179 174 167 162 156 151 152 155 161 162 160 155 153 154 159 164 169 176 182 190 198 205 212 217 217 214 205 203 199 197 196 199 204 207 209 211 212 215 219 221 220 216 211 211 210 211 213 217 219 216 211 208
179 176 173 178 187 192 193 189 185 185 187 188 185 177 170 165 161 160 161 166 171 175 177 176 176 176 175 176 179 181 185 188 193 198 203 210 211 205 199 196 199 204 206 208 207 211 212 217 220 223 224 225 221 215 211 204 200 197 201 209 213 213 209 207
187 179 171 172 178 184 184 178 176 178 187 192 191 185 178 171 169 167 170 175 182 187 189 193 193 193 191 190 188 190 188 188 189 190 196 201 202 196 188 186 191 198 203 203 202 201 206 212 217 219 219 217 213 207 198 188 177 171 182 196 209 210 209 208
191 179 167 164 168 173 171 168 168 174 183 191 193 190 185 178 171 169 171 180 189 196 198 198 200 199 198 195 194 189 189 187 186 187 188 191 190 184 178 178 183 193 198 198 196 197 200 208 211 213 214 210 205 198 189 175 157 153 166 191 206 213 213 213
185 171 158 156 164 169 172 170 172 174 180 185 187 187 184 177 168 161 165 176 189 195 197 196 197 197 196 194 189 186 183 183 184 183 182 179 177 174 173 175 183 192 199 201 200 201 207 212 217 218 217 216 212 208 202 194 186 175 191 204 216 222 223 223
178 165 153 155 165 175 179 182 181 183 181 181 180 181 179 172 160 153 155 165 177 185 187 190 190 189 188 184 179 175 173 175 178 176 173 168 168 169 173 179 187 195 202 206 207 210 214 219 221 223 224 224 222 220 218 215 213 215 217 224 231 233 234 234
177 168 159 162 174 184 191 195 198 196 192 188 185 182 178 171 161 153 153 161 168 174 177 179 179 178 175 171 166 162 163 166 169 170 164 161 162 168 176 184 191 198 204 208 212 213 217 218 220 220 219 218 216 213 211 211 211 215 220 228 233 235 237 237
183 176 174 176 183 191 198 202 206 206 203 198 194 187 183 175 168 161 161 166 170 170 170 169 167 165 163 160 155 154 156 162 167 166 161 157 158 166 175 183 190 196 203 209 215 220 221 223 222 220 219 215 209 203 198 195 196 199 208 218 227 231 233 234
189 190 189 188 188 190 192 195 198 199 200 199 196 191 185 180 173 168 169 172 175 175 173 171 169 167 164 161 158 157 161 167 171 171 165 160 160 165 171 178 183 191 199 210 220 226 232 234 235 235 232 228 222 214 206 200 195 197 206 219 228 233 235 236
191 194 196 193 188 184 184 186 188 190 191 193 191 190 186 182 176 173 173 177 182 185 188 191 193 197 197 195 190 185 183 184 186 183 179 174 171 171 173 177 184 190 200 210 219 229 234 241 245 245 246 244 237 229 221 213 205 205 212 225 234 240 241 244
183 189 191 188 180 178 182 186 191 189 188 186 187 184 183 182 180 179 182 187 192 198 204 209 214 217 219 215 211 205 202 201 199 198 194 192 187 184 182 185 191 199 204 210 216 220 229 234 240 244 247 245 239 232 224 215 208 207 215 225 235 241 246 247
175 180 184 180 176 176 181 192 195 195 189 185 182 182 183 184 185 188 193 199 204 208 210 214 215 218 216 214 207 201 199 200 201 203 204 203 200 194 191 194 201 207 212 211 212 217 221 229 234 239 241 242 236 227 222 215 211 209 212 219 227 235 241 244
169 174 177 177 174 175 183 193 200 198 192 189 188 188 189 189 191 193 199 207 212 213 212 210 209 207 206 202 197 195 193 196 200 203 208 210 209 203 200 202 210 216 218 218 218 220 226 229 233 236 238 236 231 227 224 224 223 219 214 210 215 223 233 238
167 168 169 168 167 170 177 187 193 195 195 195 197 199 199 199 195 196 202 209 214 213 210 207 202 200 199 200 204 205 205 205 205 209 213 218 217 214 210 212 215 220 223 225 228 231 233 237 236 233 230 230 229 229 232 235 237 231 219 208 205 213 222 228
168 164 159 155 153 155 161 169 176 183 190 196 201 206 209 208 207 208 210 215 217 215 211 205 201 195 194 200 207 212 214 211 210 213 219 223 226 223 223 221 221 223 227 232 237 242 244 244 240 230 223 224 229 236 240 244 243 238 227 214 208 205 209 213
169 165 159 152 147 147 151 157 165 175 185 195 201 208 212 215 217 218 220 220 219 216 211 206 199 192 189 189 195 199 200 202 203 209 217 226 229 234 234 234 232 231 232 239 245 247 249 248 242 232 224 224 232 239 243 244 243 239 231 223 212 206 199 197
172 172 170 164 159 157 161 166 173 181 190 196 200 201 204 208 211 212 209 205 202 198 196 193 192 190 188 188 188 188 190 191 195 204 217 225 235 239 245 245 243 241 241 240 242 243 245 246 244 239 235 233 234 236 238 236 235 231 226 219 214 207 204 203
171 177 181 180 176 176 179 183 187 193 197 200 197 196 195 195 195 193 186 178 171 170 169 173 180 191 199 206 209 213 206 200 199 208 218 231 237 245 249 250 248 244 237 231 225 228 233 239 243 245 244 243 239 235 232 231 230 224 216 210 208 212 216 220
173 182 190 193 195 195 195 196 198 200 204 204 202 197 196 193 193 188 182 173 166 163 162 167 187 205 218 226 235 233 228 216 211 213 224 233 240 245 249 247 244 237 225 209 201 205 217 230 237 244 249 248 246 241 237 236 232 225 214 205 205 212 221 226
188 196 204 210 214 214 212 209 208 209 210 210 207 203 202 203 201 201 198 196 197 204 213 220 224 230 236 242 243 245 237 227 219 222 228 233 238 242 243 242 239 230 214 192 181 187 207 223 235 242 248 251 249 248 245 239 234 227 217 211 209 213 219 221
212 218 225 229 231 231 229 225 223 220 218 214 209 205 204 207 210 214 217 221 226 232 239 243 245 247 248 246 247 244 240 234 230 230 233 235 236 238 238 235 231 223 207 187 175 184 204 221 233 242 248 250 252 249 242 233 224 221 221 222 222 225 225 225
227 234 239 242 243 243 241 240 237 232 227 221 214 208 208 212 219 224 232 238 242 246 249 250 250 248 248 247 245 244 242 241 241 241 241 241 239 237 232 226 218 207 198 184 179 185 201 214 225 234 240 244 243 241 233 220 213 212 220 226 230 232 231 230
232 239 246 248 249 249 250 248 246 243 238 234 228 223 224 227 231 238 243 248 248 246 243 241 242 243 242 242 242 241 241 240 241 243 244 243 239 235 228 216 204 196 189 188 187 190 196 202 209 216 223 225 225 223 218 210 204 204 210 215 217 216 215 215
238 243 249 252 253 253 253 252 252 250 249 246 243 242 241 243 245 246 247 247 245 238 231 229 229 234 237 238 236 234 228 224 223 224 228 229 229 226 222 216 207 203 203 206 207 207 205 205 205 209 212 211 210 208 205 203 198 198 197 195 194 191 191 191
245 250 252 253 254 254 253 254 253 253 252 252 250 251 249 248 248 245 242 237 234 228 224 221 226 228 232 231 230 222 210 197 192 197 206 213 216 219 221 223 225 226 229 232 232 231 229 226 224 222 219 216 209 204 200 195 193 191 190 191 189 189 189 191
252 252 253 254 254 254 253 252 253 252 253 251 251 248 247 246 243 238 230 225 221 221 220 222 223 228 227 226 221 209 190 171 166 179 196 210 218 223 228 233 238 242 244 244 246 244 243 240 234 226 220 213 206 198 192 188 186 186 189 192 196 198 200 203
253 254 254 253 254 252 252 252 251 251 248 247 242 240 238 238 238 234 226 219 214 211 209 212 218 221 222 220 215 201 179 158 156 174 199 217 227 233 237 239 242 243 244 243 242 242 239 234 222 208 196 189 183 179 178 180 181 183 186 187 190 194 195 199
254 254 253 254 252 252 250 248 249 246 244 240 235 233 232 235 237 233 227 219 210 200 195 194 203 212 216 218 215 206 186 171 168 186 208 224 234 239 242 242 241 239 237 236 235 232 231 223 211 194 181 173 168 166 170 176 182 182 180 179 179 178 182 184
253 253 254 253 253 250 248 246 244 242 240 239 239 237 238 241 240 236 226 217 209 200 192 194 201 211 218 221 223 216 206 194 195 204 218 230 235 241 241 240 237 235 231 228 225 226 224 221 212 202 193 186 180 177 179 184 185 184 177 173 174 175 179 182
252 252 252 252 251 250 247 245 242 238 237 238 241 241 244 244 242 234 224 216 211 208 209 210 217 223 227 230 231 230 224 219 218 221 226 231 235 235 237 236 233 230 224 219 218 218 220 221 219 214 211 206 201 196 195 195 194 189 183 180 181 187 190 194
247 248 248 248 248 248 247 245 240 235 230 231 230 232 232 235 235 231 224 220 218 222 223 227 229 231 232 233 233 234 233 232 231 229 230 229 229 230 229 227 226 221 216 209 208 211 217 220 220 221 219 217 213 210 208 207 205 204 202 202 204 207 209 209
236 237 239 240 242 242 244 240 237 230 224 220 218 216 218 222 226 226 227 226 228 229 232 231 232 231 228 224 223 223 225 228 228 227 223 223 221 218 216 212 210 205 198 193 192 197 204 209 215 217 219 218 218 216 216 216 217 218 222 223 224 224 221 221
224 226 227 228 229 231 230 231 226 222 217 213 210 208 212 217 221 224 225 227 229 231 231 232 230 228 223 217 211 209 209 210 210 211 210 208 208 206 201 196 190 187 181 177 178 181 187 195 201 208 212 213 211 214 216 219 220 225 226 227 227 223 221 220
219 218 216 213 212 213 214 212 209 205 203 201 200 201 205 210 216 217 220 222 223 225 226 226 227 226 223 216 210 202 194 187 185 183 184 185 188 189 188 186 184 183 182 183 182 187 189 194 200 205 207 204 203 203 208 215 219 218 218 217 215 216 217 216
222 217 209 201 196 195 195 191 185 175 163 152 144 143 165 184 197 205 208 212 213 214 214 219 221 224 223 220 214 204 191 179 172 169 169 172 177 182 185 187 189 193 197 200 204 206 209 211 212 212 208 200 190 189 195 203 206 205 201 201 206 212 218 222
230 223 212 200 192 187 183 175 163 150 137 126 115 113 132 158 177 189 197 202 203 202 205 207 216 220 222 223 221 215 206 198 192 190 187 190 193 196 197 197 199 201 206 210 214 216 217 217 218 215 207 195 184 179 185 193 196 192 187 188 198 212 220 226
235 229 218 207 196 188 179 169 155 142 130 123 119 120 134 151 167 179 187 194 196 197 199 205 210 215 219 220 222 220 216 212 210 206 205 206 211 212 211 209 207 205 207 209 209 208 207 208 207 206 201 190 179 178 185 194 196 191 185 184 193 204 214 217
229 223 213 202 193 186 178 168 158 148 142 140 140 144 151 160 170 176 184 189 193 194 197 201 206 209 211 212 211 209 204 201 198 195 193 198 203 209 211 211 210 208 205 203 200 195 191 190 192 193 188 178 170 170 179 190 193 188 182 181 186 196 200 201
215 209 199 190 183 180 176 173 168 164 161 162 164 167 173 178 183 185 187 189 188 188 189 192 196 199 201 200 199 191 185 177 174 172 173 178 187 195 201 206 207 206 201 196 189 182 176 174 176 176 171 160 150 151 162 173 177 174 169 169 177 184 189 188
204 200 193 187 182 181 181 179 179 177 176 176 176 181 186 193 195 195 192 190 184 178 177 180 185 189 190 190 186 179 167 161 158 161 163 169 176 182 188 193 196 194 189 183 174 165 157 154 155 155 152 146 140 143 153 165 169 165 161 161 165 171 174 176
199 197 195 192 190 188 186 186 183 182 179 174 173 175 182 189 194 194 192 188 184 178 175 179 185 188 187 183 177 169 159 153 154 159 164 167 169 171 173 177 178 176 171 164 157 147 139 136 136 139 142 145 151 159 169 179 182 179 171 164 158 154 155 159
195 195 195 195 193 191 189 186 184 180 175 169 164 165 171 180 186 189 188 188 185 183 182 187 192 193 188 181 174 166 159 155 158 165 168 169 166 164 164 164 164 161 156 151 145 138 132 130 130 133 140 153 166 177 187 195 198 194 185 172 154 139 137 144
